frontend/src/assets/icons/camera-03.svg

<svg width="24" height="24" viewBox="0 0 24 24" fill="none" xmlns="http://www.w3.org/2000/svg">
<g id="camera-03">
<g id="Icon">
<path d="M2 7.8C2 6.11984 2 5.27976 2.32698 4.63803C2.6146 4.07354 3.07354 3.6146 3.63803 3.32698C4.27976 3 5.11984 3 6.8 3H17.2C18.8802 3 19.7202 3 20.362 3.32698C20.9265 3.6146 21.3854 4.07354 21.673 4.63803C22 5.27976 22 6.11984 22 7.8V16.2C22 17.8802 22 18.7202 21.673 19.362C21.3854 19.9265 20.9265 20.3854 20.362 20.673C19.7202 21 18.8802 21 17.2 21H6.8C5.11984 21 4.27976 21 3.63803 20.673C3.07354 20.3854 2.6146 19.9265 2.32698 19.362C2 18.7202 2 17.8802 2 16.2V7.8Z" stroke="black" stroke-width="2" stroke-linecap="round" stroke-linejoin="round"/>
<path d="M12 16C14.2091 16 16 14.2091 16 12C16 9.79086 14.2091 8 12 8C9.79086 8 8 9.79086 8 12C8 14.2091 9.79086 16 12 16Z" stroke="black" stroke-width="2" stroke-linecap="round" stroke-linejoin="round"/>
</g>
</g>
</svg>

<svg xmlns="http://www.w3.org/2000/svg" width="24" height="24" fill="none" viewBox="0 0 24 24">
  <path stroke="#000" stroke-linecap="round" stroke-linejoin="round" stroke-width="2" d="M2 7.8c0-1.68 0-2.52.327-3.162a3 3 0 0 1 1.311-1.311C4.28 3 5.12 3 6.8 3h10.4c1.68 0 2.52 0 3.162.327a3 3 0 0 1 1.311 1.311C22 5.28 22 6.12 22 7.8v8.4c0 1.68 0 2.52-.327 3.162a3 3 0 0 1-1.311 1.311C19.72 21 18.88 21 17.2 21H6.8c-1.68 0-2.52 0-3.162-.327a3 3 0 0 1-1.311-1.311C2 18.72 2 17.88 2 16.2V7.8Z"/>
  <path stroke="#000" stroke-linecap="round" stroke-linejoin="round" stroke-width="2" d="M12 16a4 4 0 1 0 0-8 4 4 0 0 0 0 8Z"/>
</svg>
